public/ic_linky_en_attente.svg

<svg width="548" height="547" viewBox="0 0 548 547" fill="none" xmlns="http://www.w3.org/2000/svg">
<g clip-path="url(#clip0_7597_46496)">
<path d="M359.704 132.358C361.759 131.155 364.601 131.33 367.748 133.143L515.325 218.256C521.587 221.848 526.628 230.604 526.613 237.774L526.131 407.15C526.115 410.727 524.863 413.228 522.818 414.416L544.205 401.996C546.244 400.825 547.519 398.304 547.519 394.746L548 225.371C548.032 218.185 542.974 209.445 536.728 205.836L389.135 120.723C385.988 118.911 383.145 118.75 381.091 119.938L359.704 132.358Z" fill="#804F59"/>
<path d="M547.992 225.383L547.535 394.772C547.535 398.307 546.221 400.817 544.221 402.015L522.811 414.447C524.867 413.249 526.125 410.741 526.125 407.147L526.634 237.76C526.634 230.631 521.608 221.848 515.329 218.255L536.739 205.821C542.967 209.472 548.049 218.191 547.992 225.383Z" fill="#613941"/>
<path d="M355.915 308.998C355.898 316.167 360.94 324.91 367.202 328.516L514.78 413.629C521.024 417.238 526.122 414.335 526.132 407.15L526.614 237.774C526.629 230.605 521.588 221.848 515.327 218.256L367.749 133.143C361.504 129.534 356.407 132.438 356.398 139.622L355.915 308.998Z" fill="#FFB63C"/>
<path d="M375.908 313.513C374.817 312.673 373.486 310.407 373.27 309.047L373.702 156.598L506.65 233.275C507.729 234.116 509.041 236.369 509.232 237.437L509.258 237.579L508.826 390.171L375.908 313.513ZM501.586 237.829L380.186 167.818L379.759 306.907C379.887 307.371 380.729 308.758 380.957 308.95L502.34 378.948L502.738 239.766C502.544 239.238 501.791 238.007 501.586 237.829Z" fill="#804F59"/>
<path d="M403.968 299.533L474.051 339.921C491.175 322.892 491.255 286.423 474.276 249.727L404.27 209.263C387.144 226.367 386.994 262.838 403.968 299.533Z" fill="#804F59"/>
<path d="M425.095 233.632L451.766 249.013L451.728 265.492L425.095 250.134V233.632Z" fill="#FFDE9B"/>
<path d="M425.095 284.094L451.766 299.475L451.728 315.955L425.095 300.595V284.094Z" fill="#FFDE9B"/>
<path d="M401.833 261.513L401.842 264.671C401.842 262.548 406.198 261.533 408.739 263.008C409.543 263.476 409.941 264.075 409.944 264.67L409.935 261.512C409.935 259.36 405.464 258.432 403.08 259.808C402.242 260.291 401.831 260.906 401.833 261.513Z" fill="white"/>
<path d="M421.068 259.008V262.184C421.068 263.487 423.145 261.405 359.212 298.518C358.088 299.177 356.303 299.177 355.218 298.518L347.222 293.867C346.641 293.556 346.369 293.13 346.369 292.705V289.567C346.369 289.949 346.641 290.38 347.184 290.729L355.213 295.376C356.298 295.996 358.083 295.996 359.207 295.376L420.209 260.166C420.752 259.86 421.068 259.434 421.068 259.008Z" fill="#C9CEE2"/>
<path d="M420.208 257.885L412.258 253.236C411.134 252.578 409.31 252.578 408.186 253.236L347.184 288.409C346.058 289.028 346.098 290.073 347.184 290.733L355.213 295.38C356.298 296 358.083 296 359.207 295.38L420.209 260.17C421.333 259.55 421.333 258.505 420.208 257.885ZM403.029 263.152C401.438 262.223 401.438 260.752 403.067 259.821C404.618 258.93 407.139 258.93 408.729 259.861C412.518 262.075 406.744 265.324 403.029 263.152Z" fill="#F3F1FC"/>
<path d="M401.833 323.232L401.842 326.39C401.842 325.783 402.251 325.168 403.089 324.686C405.544 323.269 409.937 324.316 409.944 326.389L409.935 323.231C409.935 321.079 405.464 320.153 403.08 321.528C402.242 322.011 401.831 322.625 401.833 323.232Z" fill="white"/>
<path d="M421.068 320.726V323.908C421.068 325.21 423.145 323.128 359.212 360.241C358.088 360.9 356.303 360.9 355.218 360.241L347.228 355.594C346.647 355.283 346.376 354.858 346.376 354.431V351.294C346.376 351.676 346.647 352.107 347.19 352.456L355.219 357.105C356.305 357.723 358.089 357.723 359.213 357.105L420.216 321.893C420.752 321.58 421.068 321.153 421.068 320.726Z" fill="#C9CEE2"/>
<path d="M420.208 319.604L412.258 314.955C411.134 314.297 409.31 314.297 408.186 314.955L347.184 350.13C346.058 350.75 346.098 351.797 347.184 352.455L355.213 357.103C356.298 357.722 358.083 357.722 359.207 357.103L420.209 321.892C421.333 321.269 421.333 320.224 420.208 319.604ZM403.029 324.872C401.438 323.942 401.438 322.471 403.067 321.54C404.618 320.649 407.139 320.649 408.729 321.58C412.518 323.795 406.744 327.045 403.029 324.872Z" fill="#F3F1FC"/>
<path d="M361.48 385.029L345.081 375.509L345.039 360.731L361.438 370.251L361.48 385.029Z" fill="#3D4449"/>
<path d="M361.388 352.632L344.989 343.113L344.82 283.321L361.219 292.84L361.388 352.632Z" fill="#3D4449"/>
<path d="M306.741 366.127L290.341 356.608L344.989 343.113L361.388 352.632L306.741 366.127Z" fill="#4F575F"/>
<path d="M361.169 275.22L344.769 265.701L344.727 250.923L361.127 260.442L361.169 275.22Z" fill="#3D4449"/>
<path d="M361.127 260.442L344.727 250.923L359.435 242.442L375.835 251.961L361.127 260.442Z" fill="#4F575F"/>
<path d="M306.623 324.665L290.223 315.145L344.769 265.701L361.169 275.22L306.623 324.665Z" fill="#4F575F"/>
<path d="M291.885 322.859L275.486 313.34L290.194 304.859L306.593 314.378L291.885 322.859Z" fill="#4F575F"/>
<path d="M292.112 402.516L275.712 392.996L275.486 313.34L291.885 322.859L292.112 402.516Z" fill="#3D4449"/>
<path d="M361.127 260.442L375.834 251.961L376.188 376.547L361.48 385.029L361.438 370.252L306.791 383.775L306.82 394.034L292.112 402.516L291.885 322.859L306.593 314.378L306.625 324.672L361.17 275.226L361.127 260.442ZM361.388 352.632L361.219 292.84L306.674 342.313L306.741 366.127L361.388 352.634" fill="#2A3134"/>
<path d="M287.699 365.575L281.671 369.076C282.869 368.393 283.595 366.898 283.637 364.806C283.637 358.067 276.365 350.34 272.225 352.852L278.252 349.35C279.448 348.624 281.116 348.753 282.996 349.82C288.853 353.153 291.932 363.159 287.699 365.575Z" fill="#4F575F"/>
<path d="M276.982 353.313C280.64 355.421 283.632 360.568 283.619 364.796C283.607 369.023 280.595 370.739 276.939 368.63C273.227 366.489 270.262 361.328 270.274 357.1C270.285 352.871 273.27 351.177 276.982 353.313Z" fill="#2A3134"/>
<path d="M425.126 233.648V250.109L439.127 241.744L425.126 233.648Z" fill="#FFB63C"/>
<path d="M425.126 284.111V300.571L439.127 292.207L425.126 284.111Z" fill="#FFB63C"/>
<path d="M152.59 547C127.085 547 106.4 531.838 99.4813 513.013C94.9112 500.548 94.9392 481.491 96.3488 468.958C96.5216 467.458 97.2829 466.087 98.4659 465.147C99.6488 464.207 101.157 463.773 102.659 463.942C104.162 464.11 105.536 464.867 106.48 466.046C107.425 467.225 107.863 468.73 107.699 470.231C106.372 482.027 106.59 499.218 110.207 509.084C114.985 522.091 128.776 532.497 144.529 534.973C174.188 539.638 205.101 519.241 212.36 484.311C215.043 471.413 214.489 461.995 213.019 437.225C211.859 418.271 209.706 382.998 272.203 357.365C272.899 357.07 273.647 356.915 274.403 356.91C275.159 356.905 275.908 357.05 276.608 357.337C277.307 357.624 277.943 358.046 278.477 358.581C279.012 359.115 279.435 359.749 279.722 360.448C280.009 361.147 280.154 361.896 280.149 362.651C280.144 363.406 279.989 364.153 279.692 364.848C279.396 365.542 278.964 366.172 278.422 366.698C277.881 367.225 277.24 367.639 276.536 367.917C221.593 390.448 223.356 419.293 224.413 436.528C225.705 458.665 226.691 471.48 223.537 486.629C215.967 523.06 185.938 547 152.59 547Z" fill="#49E4A3"/>
<path d="M141.588 417.478L141.461 464.916C141.444 470.576 137.72 476.228 130.284 480.544C106.394 494.411 64.4398 484.638 64.4971 464.696L64.6309 417.258C64.5749 437.243 106.485 446.999 130.419 433.106C137.851 428.79 141.575 423.138 141.588 417.478Z" fill="#4F575F"/>
<path d="M162.151 365.571L161.944 438.31C161.859 468.571 98.3509 483.613 61.3519 462.274C49.719 455.566 43.9077 446.763 43.9332 437.974L44.1396 365.235C44.1142 374.024 49.9255 382.825 61.5584 389.534C84.6789 402.868 122.031 402.875 145.014 389.534C156.417 382.915 162.127 374.25 162.151 365.571Z" fill="#DBE6FA"/>
<path d="M161.944 420.626C162.77 430.266 156.1 438.642 148.158 444.333C121.665 463.333 70.4183 460.464 50.4966 437.671C46.2795 432.911 43.4108 426.566 43.9792 420.29C46.8607 454.493 125.632 463.106 153.657 436.36C158.056 432.321 161.398 426.874 161.944 420.626Z" fill="#BBCFEF"/>
<path d="M161.944 404.886C162.482 411.168 159.563 417.488 155.326 422.226C132.809 447.685 72.6421 447.267 50.4966 421.931C46.2795 417.171 43.4108 410.825 43.9792 404.55C46.8428 438.527 125.483 447.509 153.657 420.62C158.056 416.577 161.398 411.134 161.944 404.886Z" fill="#BBCFEF"/>
<path d="M161.944 389.147C162.482 395.429 159.563 401.749 155.326 406.485C132.754 432.01 72.5937 431.471 50.4966 406.19C46.2795 401.43 43.4108 395.085 43.9792 388.809C46.8785 423.218 125.761 431.503 153.657 404.879C158.056 400.84 161.398 395.393 161.944 389.147Z" fill="#BBCFEF"/>
<path d="M144.73 344.462C167.851 357.795 167.974 379.414 145.015 392.74C122.031 406.082 84.6776 406.074 61.5558 392.74C38.4341 379.406 38.313 357.803 61.301 344.462C84.2558 331.136 121.608 331.128 144.73 344.462Z" fill="#ECF0F1"/>
<path d="M205.999 299.013L201.45 360.696C200.398 373.845 190.081 386.707 170.885 396.366C133.139 415.372 73.3915 415.372 35.3858 396.366C15.8298 386.587 5.32225 373.51 4.36516 360.193L4.34095 359.715L0.176148 299.778L0.0805664 298.463C0.104588 298.92 0.152658 299.375 0.224576 299.827C1.85201 313.885 12.8146 327.577 32.5846 337.887C72.27 358.567 134.575 358.567 173.972 337.887C189.587 329.71 204.606 316.577 205.999 299.013Z" fill="#3D4449"/>
<path d="M177.859 257.14C217.505 280.425 214.69 316.554 173.984 337.897C134.566 358.567 72.2674 358.568 32.5947 337.891C-8.34087 316.554 -11.5805 280.426 27.7787 257.149C68.5027 233.067 136.873 233.065 177.859 257.14Z" fill="#4F575F"/>
<path d="M127.908 296.82C139.187 296.82 148.33 291.53 148.33 285.005C148.33 278.479 139.187 273.189 127.908 273.189C116.63 273.189 107.487 278.479 107.487 285.005C107.487 291.53 116.63 296.82 127.908 296.82Z" fill="#2A3134"/>
<path d="M79.4384 296.82C90.7167 296.82 99.8597 291.53 99.8597 285.005C99.8597 278.479 90.7167 273.189 79.4384 273.189C68.16 273.189 59.0171 278.479 59.0171 285.005C59.0171 291.53 68.16 296.82 79.4384 296.82Z" fill="#2A3134"/>
<path d="M63.5681 39.807V283.827C64.0218 294.52 81.2494 298.407 91.1363 292.698C94.8627 290.617 97.0471 287.352 97.1376 283.612V39.807C97.1376 38.0768 97.8257 36.4175 99.0506 35.194C100.275 33.9706 101.937 33.2833 103.669 33.2833C105.401 33.2833 107.062 33.9706 108.287 35.194C109.512 36.4175 110.2 38.0768 110.2 39.807C110.23 83.4926 110.116 -79.9755 110.37 285.203C111.688 292.077 119.96 295.329 127.065 295.329C134.17 295.329 142.495 292.006 143.644 285.033L143.771 41.8386C143.769 -14.6119 63.5681 -12.602 63.5681 39.807Z" fill="#FFCA6C"/>
<path d="M128.889 346.567C140.167 346.567 149.31 341.277 149.31 334.752C149.31 328.226 140.167 322.937 128.889 322.937C117.61 322.937 108.467 328.226 108.467 334.752C108.467 341.277 117.61 346.567 128.889 346.567Z" fill="#2A3134"/>
<path d="M175.823 313.453C187.101 313.453 196.244 308.163 196.244 301.638C196.244 295.113 187.101 289.823 175.823 289.823C164.544 289.823 155.401 295.113 155.401 301.638C155.401 308.163 164.544 313.453 175.823 313.453Z" fill="#2A3134"/>
<path d="M30.5184 313.453C41.7968 313.453 50.9397 308.163 50.9397 301.638C50.9397 295.113 41.7968 289.823 30.5184 289.823C19.2401 289.823 10.0972 295.113 10.0972 301.638C10.0972 308.163 19.2401 313.453 30.5184 313.453Z" fill="#2A3134"/>
<path d="M75.6356 346.567C86.914 346.567 96.0569 341.277 96.0569 334.752C96.0569 328.226 86.914 322.937 75.6356 322.937C64.3573 322.937 55.2144 328.226 55.2144 334.752C55.2144 341.277 64.3573 346.567 75.6356 346.567Z" fill="#2A3134"/>
<path d="M112.645 86.7615V330.175C112.754 333.762 114.888 336.944 118.665 339.145C121.75 340.927 125.627 341.818 129.484 341.818C133.34 341.818 137.198 340.927 140.253 339.161C143.979 337.034 146.163 333.738 146.223 330.031V86.7615C146.223 85.0327 146.911 83.3746 148.135 82.1521C149.359 80.9296 151.019 80.2429 152.749 80.2429C154.48 80.2429 156.14 80.9296 157.364 82.1521C158.588 83.3746 159.276 85.0327 159.276 86.7615V298.201C159.385 301.742 161.57 305.005 165.296 307.166C175.379 312.986 192.736 308.949 192.854 298.051V88.7906C192.854 32.3489 112.645 34.3284 112.645 86.7615Z" fill="#FFDE9B"/>
<path d="M13.2539 88.7905V298.111C13.3737 308.931 30.6803 312.998 40.8323 307.156C44.5587 304.985 46.7431 301.713 46.8221 298.051V86.7615C46.8461 85.0469 47.5448 83.4106 48.7672 82.2066C49.9896 81.0026 51.6374 80.3276 53.3541 80.3276C55.0709 80.3276 56.7187 81.0026 57.9411 82.2066C59.1634 83.4106 59.8622 85.0469 59.8862 86.7615V330.084C60.006 340.974 77.3686 344.942 87.4735 339.13C91.1897 336.953 93.3741 333.681 93.4544 330.024V86.7615C93.4505 34.1144 13.2539 32.4825 13.2539 88.7905Z" fill="#FFDE9B"/>
</g>
<defs>
<clipPath id="clip0_7597_46496">
<rect width="548" height="547" fill="white"/>
</clipPath>
</defs>
</svg>

<svg xmlns="http://www.w3.org/2000/svg" width="548" height="547" fill="none"><g clip-path="url(#a)"><path fill="#804F59" d="M359.704 132.358c2.055-1.203 4.897-1.028 8.044.785l147.577 85.113c6.262 3.592 11.303 12.348 11.288 19.518l-.482 169.376c-.016 3.577-1.268 6.078-3.313 7.266l21.387-12.42c2.039-1.171 3.314-3.692 3.314-7.25L548 225.371c.032-7.186-5.026-15.926-11.272-19.535l-147.593-85.113c-3.147-1.812-5.99-1.973-8.044-.785z"/><path fill="#613941" d="m547.992 225.383-.457 169.389c0 3.535-1.314 6.045-3.314 7.243l-21.41 12.432c2.056-1.198 3.314-3.706 3.314-7.3l.509-169.387c0-7.129-5.026-15.912-11.305-19.505l21.41-12.434c6.228 3.651 11.31 12.37 11.253 19.562"/><path fill="#FFB63C" d="M355.915 308.998c-.017 7.169 5.025 15.912 11.287 19.518l147.578 85.113c6.244 3.609 11.342.706 11.352-6.479l.482-169.376c.015-7.169-5.026-15.926-11.287-19.518l-147.578-85.113c-6.245-3.609-11.342-.705-11.351 6.479z"/><path fill="#804F59" d="M375.908 313.513c-1.091-.84-2.422-3.106-2.638-4.466l.432-152.449 132.948 76.677c1.079.841 2.391 3.094 2.582 4.162l.026.142-.432 152.592zm125.678-75.684-121.4-70.011-.427 139.089c.128.464.97 1.851 1.198 2.043l121.383 69.998.398-139.182c-.194-.528-.947-1.759-1.152-1.937"/><path fill="#804F59" d="m403.968 299.533 70.083 40.388c17.124-17.029 17.204-53.498.225-90.194l-70.006-40.464c-17.126 17.104-17.276 53.575-.302 90.27"/><path fill="#FFDE9B" d="m425.095 233.632 26.671 15.381-.038 16.479-26.633-15.358zm0 50.462 26.671 15.381-.038 16.48-26.633-15.36z"/><path fill="#fff" d="m401.833 261.513.009 3.158c0-2.123 4.356-3.138 6.897-1.663.804.468 1.202 1.067 1.205 1.662l-.009-3.158c0-2.152-4.471-3.08-6.855-1.704-.838.483-1.249 1.098-1.247 1.705"/><path fill="#C9CEE2" d="M421.068 259.008v3.176c0 1.303 2.077-.779-61.856 36.334-1.124.659-2.909.659-3.994 0l-7.996-4.651c-.581-.311-.853-.737-.853-1.162v-3.138c0 .382.272.813.815 1.162l8.029 4.647c1.085.62 2.87.62 3.994 0l61.002-35.21c.543-.306.859-.732.859-1.158"/><path fill="#F3F1FC" d="m420.208 257.885-7.95-4.649c-1.124-.658-2.948-.658-4.072 0l-61.002 35.173c-1.126.619-1.086 1.664 0 2.324l8.029 4.647c1.085.62 2.87.62 3.994 0l61.002-35.21c1.124-.62 1.124-1.665-.001-2.285m-17.179 5.267c-1.591-.929-1.591-2.4.038-3.331 1.551-.891 4.072-.891 5.662.04 3.789 2.214-1.985 5.463-5.7 3.291"/><path fill="#fff" d="m401.833 323.232.009 3.158c0-.607.409-1.222 1.247-1.704 2.455-1.417 6.848-.37 6.855 1.703l-.009-3.158c0-2.152-4.471-3.078-6.855-1.703-.838.483-1.249 1.097-1.247 1.704"/><path fill="#C9CEE2" d="M421.068 320.726v3.182c0 1.302 2.077-.78-61.856 36.333-1.124.659-2.909.659-3.994 0l-7.99-4.647c-.581-.311-.852-.736-.852-1.163v-3.137c0 .382.271.813.814 1.162l8.029 4.649c1.086.618 2.87.618 3.994 0l61.003-35.212c.536-.313.852-.74.852-1.167"/><path fill="#F3F1FC" d="m420.208 319.604-7.95-4.649c-1.124-.658-2.948-.658-4.072 0l-61.002 35.175c-1.126.62-1.086 1.667 0 2.325l8.029 4.648c1.085.619 2.87.619 3.994 0l61.002-35.211c1.124-.623 1.124-1.668-.001-2.288m-17.179 5.268c-1.591-.93-1.591-2.401.038-3.332 1.551-.891 4.072-.891 5.662.04 3.789 2.215-1.985 5.465-5.7 3.292"/><path fill="#3D4449" d="m361.48 385.029-16.399-9.52-.042-14.778 16.399 9.52zm-.092-32.397-16.399-9.519-.169-59.792 16.399 9.519z"/><path fill="#4F575F" d="m306.741 366.127-16.4-9.519 54.648-13.495 16.399 9.519z"/><path fill="#3D4449" d="m361.169 275.22-16.4-9.519-.042-14.778 16.4 9.519z"/><path fill="#4F575F" d="m361.127 260.442-16.4-9.519 14.708-8.481 16.4 9.519zm-54.504 64.223-16.4-9.52 54.546-49.444 16.4 9.519z"/><path fill="#4F575F" d="m291.885 322.859-16.399-9.519 14.708-8.481 16.399 9.519z"/><path fill="#3D4449" d="m292.112 402.516-16.4-9.52-.226-79.656 16.399 9.519z"/><path fill="#2A3134" d="m361.127 260.442 14.707-8.481.354 124.586-14.708 8.482-.042-14.777-54.647 13.523.029 10.259-14.708 8.482-.227-79.657 14.708-8.481.032 10.294 54.545-49.446zm.261 92.19-.169-59.792-54.545 49.473.067 23.814 54.647-13.493"/><path fill="#4F575F" d="m287.699 365.575-6.028 3.501c1.198-.683 1.924-2.178 1.966-4.27 0-6.739-7.272-14.466-11.412-11.954l6.027-3.502c1.196-.726 2.864-.597 4.744.47 5.857 3.333 8.936 13.339 4.703 15.755"/><path fill="#2A3134" d="M276.982 353.313c3.658 2.108 6.65 7.255 6.637 11.483-.012 4.227-3.024 5.943-6.68 3.834-3.712-2.141-6.677-7.302-6.665-11.53.011-4.229 2.996-5.923 6.708-3.787"/><path fill="#FFB63C" d="M425.126 233.648v16.461l14.001-8.365zm0 50.463v16.46l14.001-8.364z"/><path fill="#49E4A3" d="M152.59 547c-25.505 0-46.19-15.162-53.109-33.987-4.57-12.465-4.542-31.522-3.132-44.055a5.7 5.7 0 0 1 2.117-3.811 5.714 5.714 0 0 1 8.014.899 5.7 5.7 0 0 1 1.219 4.185c-1.327 11.796-1.109 28.987 2.508 38.853 4.778 13.007 18.569 23.413 34.322 25.889 29.659 4.665 60.572-15.732 67.831-50.662 2.683-12.898 2.129-22.316.659-47.086-1.16-18.954-3.313-54.227 59.184-79.86a5.74 5.74 0 0 1 4.405-.028 5.7 5.7 0 0 1 1.869 1.244 5.69 5.69 0 0 1 1.215 6.267 5.7 5.7 0 0 1-3.156 3.069c-54.943 22.531-53.18 51.376-52.123 68.611 1.292 22.137 2.278 34.952-.876 50.101C215.967 523.06 185.938 547 152.59 547"/><path fill="#4F575F" d="m141.588 417.478-.127 47.438c-.017 5.66-3.741 11.312-11.177 15.628-23.89 13.867-65.844 4.094-65.787-15.848l.134-47.438c-.056 19.985 41.854 29.741 65.788 15.848 7.432-4.316 11.156-9.968 11.169-15.628"/><path fill="#DBE6FA" d="m162.151 365.571-.207 72.739c-.085 30.261-63.593 45.303-100.592 23.964-11.633-6.708-17.444-15.511-17.419-24.3l.207-72.739c-.026 8.789 5.785 17.59 17.418 24.299 23.12 13.334 60.473 13.341 83.456 0 11.403-6.619 17.113-15.284 17.137-23.963"/><path fill="#BBCFEF" d="M161.944 420.626c.826 9.64-5.844 18.016-13.786 23.707-26.493 19-77.74 16.131-97.661-6.662-4.218-4.76-7.086-11.105-6.518-17.381 2.882 34.203 81.653 42.816 109.678 16.07 4.399-4.039 7.741-9.486 8.287-15.734"/><path fill="#BBCFEF" d="M161.944 404.886c.538 6.282-2.381 12.602-6.618 17.34-22.517 25.459-82.684 25.041-104.83-.295-4.217-4.76-7.085-11.106-6.517-17.381 2.864 33.977 81.504 42.959 109.678 16.07 4.399-4.043 7.741-9.486 8.287-15.734"/><path fill="#BBCFEF" d="M161.944 389.147c.538 6.282-2.381 12.602-6.618 17.338-22.572 25.525-82.732 24.986-104.83-.295-4.217-4.76-7.085-11.105-6.517-17.381 2.9 34.409 81.782 42.694 109.678 16.07 4.399-4.039 7.741-9.486 8.287-15.732"/><path fill="#ECF0F1" d="M144.73 344.462c23.121 13.333 23.244 34.952.285 48.278-22.984 13.342-60.337 13.334-83.46 0-23.12-13.334-23.242-34.937-.254-48.278 22.955-13.326 60.307-13.334 83.429 0"/><path fill="#3D4449" d="m205.999 299.013-4.549 61.683c-1.052 13.149-11.369 26.011-30.565 35.67-37.746 19.006-97.493 19.006-135.5 0-19.555-9.779-30.063-22.856-31.02-36.173l-.024-.478-4.165-59.937-.095-1.315q.036.686.144 1.364c1.627 14.058 12.59 27.75 32.36 38.06 39.685 20.68 101.99 20.68 141.387 0 15.615-8.177 30.634-21.31 32.027-38.874"/><path fill="#4F575F" d="M177.859 257.14c39.646 23.285 36.831 59.414-3.875 80.757-39.418 20.67-101.717 20.671-141.39-.006-40.935-21.337-44.174-57.465-4.815-80.742 40.724-24.082 109.094-24.084 150.08-.009"/><path fill="#2A3134" d="M127.908 296.82c11.279 0 20.422-5.29 20.422-11.815 0-6.526-9.143-11.816-20.422-11.816s-20.421 5.29-20.421 11.816c0 6.525 9.143 11.815 20.421 11.815m-48.47 0c11.279 0 20.422-5.29 20.422-11.815 0-6.526-9.143-11.816-20.422-11.816s-20.42 5.29-20.42 11.816c0 6.525 9.142 11.815 20.42 11.815"/><path fill="#FFCA6C" d="M63.568 39.807v244.02c.454 10.693 17.681 14.58 27.568 8.871 3.727-2.081 5.911-5.346 6.002-9.086V39.807c0-1.73.688-3.39 1.913-4.613a6.535 6.535 0 0 1 9.236 0 6.52 6.52 0 0 1 1.913 4.613c.03 43.686-.084-119.782.17 245.396 1.318 6.874 9.59 10.126 16.695 10.126s15.43-3.323 16.579-10.296l.127-243.194c-.002-56.45-80.203-54.441-80.203-2.032"/><path fill="#2A3134" d="M128.889 346.567c11.278 0 20.421-5.29 20.421-11.815 0-6.526-9.143-11.815-20.421-11.815-11.279 0-20.422 5.289-20.422 11.815s9.143 11.815 20.422 11.815m46.934-33.114c11.278 0 20.421-5.29 20.421-11.815s-9.143-11.815-20.421-11.815c-11.279 0-20.422 5.29-20.422 11.815s9.143 11.815 20.422 11.815m-145.305 0c11.279 0 20.422-5.29 20.422-11.815s-9.143-11.815-20.422-11.815-20.42 5.29-20.42 11.815 9.142 11.815 20.42 11.815m45.118 33.114c11.278 0 20.42-5.29 20.42-11.815 0-6.526-9.142-11.815-20.42-11.815s-20.422 5.289-20.422 11.815 9.143 11.815 20.422 11.815"/><path fill="#FFDE9B" d="M112.645 86.762v243.413c.109 3.587 2.243 6.769 6.02 8.97 3.085 1.782 6.962 2.673 10.819 2.673 3.856 0 7.714-.891 10.769-2.657 3.726-2.127 5.91-5.423 5.97-9.13V86.761c0-1.728.688-3.386 1.912-4.609a6.53 6.53 0 0 1 9.229 0 6.52 6.52 0 0 1 1.912 4.61V298.2c.109 3.541 2.294 6.804 6.02 8.965 10.083 5.82 27.44 1.783 27.558-9.115V88.791c0-56.442-80.209-54.463-80.209-2.03M13.254 88.79v209.321c.12 10.82 17.426 14.887 27.578 9.045 3.727-2.171 5.911-5.443 5.99-9.105V86.761a6.52 6.52 0 0 1 1.945-4.554 6.537 6.537 0 0 1 9.174 0 6.52 6.52 0 0 1 1.945 4.555v243.322c.12 10.89 17.483 14.858 27.588 9.046 3.716-2.177 5.9-5.449 5.98-9.106V86.762c-.003-52.648-80.2-54.28-80.2 2.028"/></g><defs><clipPath id="a"><path fill="#fff" d="M0 0h548v547H0z"/></clipPath></defs></svg>
